X: 26721
T: Mike MacDougall's
R: jig
M: 6/8
K: Dmajor
g|:f2g fdB|A2 B AFA|fgf fed|a3a2 f|gag gfe|
fgf fed|1 efe dcB|A3 A2a:|2 ecA ABc|d3 d2F||
|:AFA BGB|A3 A2F|GFG BAF|E2 E2 cd|
eee e2d|ccc c2 B|AAA ABc|d3 d2F:|

